X:9
T:Beauty Spot (reel), The  
B:CRE1.135 (Ball Seirce)
F:file ID: cre.1/009beauty
S:Tommy Potts
M:C
L:1/8
Q:180
R:reel
K:C
"D modal"
dB||A2AF A2dB|cAAG EFGc|(3ABA AF A2dB|cAGE EDD2|
(3ABA AF A2dB|cAAG EFGc|(3ABA AF A2dB|cAGE FDD2||
edd2 edcd|edd2 eaag|edd2 edcA|ABcd edd2|
edd2 edcd|edd2 eaag|afge fde^c|Addc dedc||

%%%

